img/logo.svg

<svg width="184" height="40" viewBox="0 0 184 40" fill="none" xmlns="http://www.w3.org/2000/svg">
<path d="M11.8311 6.03922V9.4902L8.77031 10.0784V24.9804C8.77031 26.8627 9.2739 28.2745 10.2811 29.2157C11.3013 30.1438 12.6944 30.6078 14.4602 30.6078C16.2522 30.6078 17.6583 30.1438 18.6786 29.2157C19.6989 28.2876 20.209 26.8758 20.209 24.9804V10.0784L17.1678 9.4902V6.03922H28.9989V9.4902L25.9382 10.0784V24.9804C25.9382 28.183 24.8787 30.6536 22.7597 32.3922C20.6537 34.1307 17.8873 35 14.4602 35C11.0463 35 8.28634 34.1307 6.18042 32.3922C4.08758 30.6536 3.04116 28.183 3.04116 24.9804V10.0784L0 9.4902V6.03922H11.8311Z" fill="#262D33"/>
<path d="M30.5293 31.1569L33.2762 30.5686V17.4118L30.235 16.8235V13.3726H38.6129L38.868 16.4118C39.5743 15.3268 40.4442 14.4837 41.4775 13.8824C42.5108 13.281 43.6684 12.9804 44.9503 12.9804C47.0955 12.9804 48.7697 13.6536 49.9731 15C51.1765 16.3464 51.7782 18.4575 51.7782 21.3333V30.5686L54.5251 31.1569V34.5882H43.5769V31.1569L46.0294 30.5686V21.3529C46.0294 19.9281 45.7417 18.9216 45.1661 18.3333C44.5906 17.732 43.7208 17.4314 42.5566 17.4314C41.798 17.4314 41.1178 17.5882 40.5161 17.902C39.9144 18.2026 39.4108 18.634 39.0053 19.1961V30.5686L41.3205 31.1569V34.5882H30.5293V31.1569Z" fill="#262D33"/>
<path d="M56.1732 31.1569L58.9396 30.5686V17.4118L55.8789 16.8235V13.3726H64.6688V30.5686L67.4157 31.1569V34.5882H56.1732V31.1569ZM64.6688 8.29412H58.9396V4H64.6688V8.29412Z" fill="#262D33"/>
<path d="M78.305 16.8235L76.3037 17.1961L79.1094 26.6863L79.4822 28.6863H79.5999L80.0119 26.6863L82.7784 17.2157L80.7379 16.8235V13.3726H90.3715V16.8235L88.5272 17.1176L82.2683 34.5882H76.7942L70.5157 17.1176L68.6714 16.8235V13.3726H78.305V16.8235Z" fill="#262D33"/>
<path d="M102.105 35C99.0437 35 96.5977 34.0196 94.7665 32.0588C92.9352 30.098 92.0196 27.6078 92.0196 24.5882V23.8039C92.0196 20.6536 92.8829 18.0588 94.6095 16.0196C96.3492 13.9804 98.6775 12.9673 101.594 12.9804C104.459 12.9804 106.683 13.8431 108.265 15.5686C109.848 17.2941 110.639 19.6275 110.639 22.5686V25.6863H97.9646L97.9254 25.8039C98.03 27.2026 98.4944 28.3529 99.3184 29.2549C100.156 30.1569 101.287 30.6078 102.713 30.6078C103.982 30.6078 105.034 30.4837 105.872 30.2353C106.709 29.9739 107.624 29.5686 108.618 29.0196L110.168 32.549C109.292 33.2418 108.154 33.8235 106.755 34.2941C105.368 34.7647 103.818 35 102.105 35ZM101.594 17.3922C100.535 17.3922 99.6977 17.7974 99.083 18.6078C98.4682 19.4183 98.0889 20.4837 97.945 21.8039L98.0038 21.902H105.028V21.3922C105.028 20.1765 104.74 19.2092 104.165 18.4902C103.602 17.7582 102.745 17.3922 101.594 17.3922Z" fill="#262D33"/>
<path d="M113.798 31.1569L116.545 30.5686V17.4118L113.504 16.8235V13.3726H121.882L122.137 16.4706C122.634 15.3725 123.275 14.5163 124.06 13.902C124.845 13.2876 125.754 12.9804 126.787 12.9804C127.088 12.9804 127.402 13.0065 127.729 13.0588C128.069 13.098 128.35 13.1503 128.572 13.2157L127.964 18.4314L125.61 18.3726C124.773 18.3726 124.079 18.5359 123.53 18.8627C122.981 19.1895 122.562 19.6536 122.274 20.2549V30.5686L125.021 31.1569V34.5882H113.798V31.1569Z" fill="#262D33"/>
<path d="M147.604 20.6667H143.759L143.15 18.0196C142.758 17.7059 142.261 17.4444 141.659 17.2353C141.071 17.0261 140.417 16.9216 139.697 16.9216C138.69 16.9216 137.892 17.1503 137.303 17.6078C136.715 18.0523 136.421 18.6144 136.421 19.2941C136.421 19.9346 136.702 20.4706 137.264 20.902C137.827 21.3203 138.952 21.6928 140.639 22.0196C143.268 22.5425 145.217 23.3137 146.486 24.3333C147.755 25.3399 148.389 26.732 148.389 28.5098C148.389 30.4183 147.565 31.9804 145.917 33.1961C144.282 34.3987 142.124 35 139.442 35C137.807 35 136.303 34.7647 134.929 34.2941C133.569 33.8105 132.359 33.1242 131.3 32.2353L131.241 27.4706H135.243L136.028 30.2353C136.368 30.5229 136.833 30.7386 137.421 30.8824C138.01 31.0131 138.625 31.0784 139.266 31.0784C140.43 31.0784 141.313 30.8693 141.914 30.451C142.529 30.0327 142.836 29.4641 142.836 28.7451C142.836 28.1176 142.529 27.5752 141.914 27.1176C141.3 26.6601 140.168 26.2549 138.52 25.902C136.022 25.3922 134.132 24.6405 132.85 23.6471C131.581 22.6405 130.946 21.2745 130.946 19.549C130.946 17.7712 131.679 16.2418 133.144 14.9608C134.609 13.6667 136.695 13.0196 139.403 13.0196C141.051 13.0196 142.608 13.2418 144.073 13.6863C145.551 14.1307 146.708 14.6993 147.545 15.3922L147.604 20.6667Z" fill="#262D33"/>
<path d="M164.478 34.5882C164.321 34.2353 164.183 33.8758 164.066 33.5098C163.948 33.1307 163.856 32.7516 163.791 32.3726C163.111 33.1569 162.28 33.7909 161.299 34.2745C160.331 34.7582 159.219 35 157.964 35C155.884 35 154.229 34.4379 153 33.3137C151.783 32.1765 151.175 30.634 151.175 28.6863C151.175 26.6993 151.973 25.1634 153.569 24.0784C155.165 22.9935 157.506 22.451 160.593 22.451H163.516V20.3725C163.516 19.3529 163.222 18.5621 162.633 18C162.045 17.4379 161.175 17.1569 160.024 17.1569C159.37 17.1569 158.788 17.2353 158.278 17.3922C157.768 17.5359 157.356 17.7124 157.042 17.9216L156.669 20.1961H152.352L152.372 15.4902C153.418 14.7843 154.615 14.1895 155.962 13.7059C157.323 13.2222 158.801 12.9804 160.397 12.9804C163.026 12.9804 165.158 13.6275 166.793 14.9216C168.441 16.2026 169.265 18.0327 169.265 20.4118V29.1765C169.265 29.5033 169.265 29.8105 169.265 30.098C169.278 30.3856 169.304 30.6601 169.344 30.9216L171.09 31.1569V34.5882H164.478ZM159.514 30.7647C160.377 30.7647 161.162 30.5817 161.868 30.2157C162.575 29.8366 163.124 29.366 163.516 28.8039V25.5686H160.593C159.376 25.5686 158.454 25.8562 157.826 26.4314C157.199 26.9935 156.885 27.6732 156.885 28.4706C156.885 29.1895 157.114 29.7516 157.571 30.1569C158.042 30.5621 158.69 30.7647 159.514 30.7647Z" fill="#262D33"/>
<path d="M172.444 7.45098V4H181.234V30.5686L184 31.1569V34.5882H172.738V31.1569L175.504 30.5686V8.03922L172.444 7.45098Z" fill="#262D33"/>
</svg>

<svg width="184" height="40" fill="none" xmlns="http://www.w3.org/2000/svg"><path d="M11.831 6.04v3.45l-3.06.588V24.98c0 1.883.503 3.294 1.51 4.236 1.02.928 2.413 1.392 4.18 1.392 1.791 0 3.197-.464 4.218-1.392 1.02-.928 1.53-2.34 1.53-4.236V10.078l-3.041-.588V6.04h11.83v3.45l-3.06.588V24.98c0 3.203-1.06 5.674-3.178 7.412C20.654 34.131 17.887 35 14.46 35c-3.414 0-6.174-.87-8.28-2.608-2.092-1.738-3.139-4.209-3.139-7.412V10.078L0 9.49V6.04h11.831zM30.53 31.157l2.746-.588V17.412l-3.041-.588v-3.451h8.378l.255 3.039c.706-1.085 1.576-1.928 2.61-2.53 1.033-.601 2.19-.902 3.472-.902 2.145 0 3.82.674 5.023 2.02 1.203 1.346 1.805 3.457 1.805 6.333v9.236l2.747.588v3.431H43.577v-3.431l2.452-.588v-9.216c0-1.425-.287-2.431-.863-3.02-.575-.601-1.445-.902-2.61-.902-.758 0-1.438.157-2.04.471-.602.3-1.105.732-1.51 1.294V30.57l2.315.588v3.431H30.529v-3.431zM56.173 31.157l2.767-.588V17.412l-3.061-.588v-3.451h8.79v17.196l2.747.588v3.431H56.173v-3.431zM64.67 8.294h-5.73V4h5.73v4.294zM78.305 16.823l-2.001.373 2.805 9.49.373 2h.118l.412-2 2.766-9.47-2.04-.393v-3.45h9.633v3.45l-1.844.295-6.259 17.47h-5.474l-6.278-17.47-1.845-.294v-3.451h9.634v3.45zM102.105 35c-3.061 0-5.507-.98-7.339-2.941-1.83-1.961-2.746-4.451-2.746-7.47v-.785c0-3.15.863-5.745 2.59-7.784 1.74-2.04 4.067-3.053 6.984-3.04 2.865 0 5.089.863 6.671 2.589 1.583 1.725 2.374 4.059 2.374 7v3.117H97.965l-.04.118c.105 1.399.57 2.549 1.393 3.45.838.903 1.969 1.354 3.395 1.354 1.269 0 2.321-.124 3.159-.373.837-.261 1.752-.666 2.746-1.215l1.55 3.529c-.876.693-2.014 1.275-3.413 1.745-1.387.47-2.937.706-4.65.706zm-.511-17.608c-1.059 0-1.896.405-2.511 1.216-.615.81-.994 1.876-1.138 3.196l.059.098h7.024v-.51c0-1.215-.288-2.183-.863-2.902-.563-.732-1.42-1.098-2.571-1.098zM113.798 31.157l2.747-.588V17.412l-3.041-.588v-3.451h8.378l.255 3.098c.497-1.098 1.138-1.955 1.923-2.569.785-.614 1.694-.922 2.727-.922.301 0 .615.027.942.079.34.039.621.091.843.157l-.608 5.215-2.354-.058c-.837 0-1.531.163-2.08.49-.549.326-.968.79-1.256 1.392v10.314l2.747.588v3.431h-11.223v-3.431zM147.604 20.667h-3.845l-.609-2.647c-.392-.314-.889-.576-1.491-.785a5.821 5.821 0 00-1.962-.313c-1.007 0-1.805.228-2.394.686-.588.444-.882 1.006-.882 1.686 0 .64.281 1.177.843 1.608.563.418 1.688.79 3.375 1.118 2.629.523 4.578 1.294 5.847 2.313 1.269 1.007 1.903 2.399 1.903 4.177 0 1.908-.824 3.47-2.472 4.686C144.282 34.4 142.124 35 139.442 35c-1.635 0-3.139-.235-4.513-.706a11.674 11.674 0 01-3.629-2.059l-.059-4.764h4.002l.785 2.764c.34.288.805.504 1.393.647.589.131 1.204.196 1.845.196 1.164 0 2.047-.209 2.648-.627.615-.418.922-.987.922-1.706 0-.627-.307-1.17-.922-1.627-.614-.458-1.746-.863-3.394-1.216-2.498-.51-4.388-1.262-5.67-2.255-1.269-1.006-1.904-2.372-1.904-4.098 0-1.778.733-3.307 2.198-4.588 1.465-1.294 3.551-1.941 6.259-1.941 1.648 0 3.205.222 4.67.666 1.478.445 2.635 1.013 3.472 1.706l.059 5.275zM164.478 34.588a10.574 10.574 0 01-.412-1.078 8.87 8.87 0 01-.275-1.137 7.847 7.847 0 01-2.492 1.902c-.968.483-2.08.725-3.335.725-2.08 0-3.735-.562-4.964-1.686-1.217-1.138-1.825-2.68-1.825-4.628 0-1.987.798-3.523 2.394-4.608 1.596-1.084 3.937-1.627 7.024-1.627h2.923v-2.079c0-1.02-.294-1.81-.883-2.372-.588-.562-1.458-.843-2.609-.843-.654 0-1.236.078-1.746.235-.51.144-.922.32-1.236.53l-.373 2.274h-4.317l.02-4.706c1.046-.706 2.243-1.3 3.59-1.784 1.361-.484 2.839-.726 4.435-.726 2.629 0 4.761.647 6.396 1.942 1.648 1.28 2.472 3.11 2.472 5.49v9.686c.013.288.039.562.079.824l1.746.235v3.431h-6.612zm-4.964-3.823c.863 0 1.648-.183 2.354-.55.707-.378 1.256-.849 1.648-1.411v-3.235h-2.923c-1.217 0-2.139.287-2.767.862-.627.563-.941 1.242-.941 2.04 0 .718.229 1.28.686 1.686.471.405 1.119.608 1.943.608zM172.444 7.451V4h8.79v26.569l2.766.588v3.431h-11.262v-3.431l2.766-.588V8.039l-3.06-.588z" fill="#262D33"/></svg>
